cs_client/src/assets/icons/cherrytree/terminal.svg

<?xml version="1.0" encoding="UTF-8" standalone="no"?>
<!-- Created with Inkscape (http://www.inkscape.org/) -->
<svg
   xmlns:dc="http://purl.org/dc/elements/1.1/"
   xmlns:cc="http://creativecommons.org/ns#"
   xmlns:rdf="http://www.w3.org/1999/02/22-rdf-syntax-ns#"
   xmlns:svg="http://www.w3.org/2000/svg"
   xmlns="http://www.w3.org/2000/svg"
   xmlns:xlink="http://www.w3.org/1999/xlink"
   xmlns:sodipodi="http://sodipodi.sourceforge.net/DTD/sodipodi-0.dtd"
   xmlns:inkscape="http://www.inkscape.org/namespaces/inkscape"
   width="48px"
   height="48px"
   id="svg7243"
   sodipodi:version="0.32"
   inkscape:version="0.46"
   sodipodi:docname="drawing.svg"
   inkscape:output_extension="org.inkscape.output.svg.inkscape">
  <defs
     id="defs7245">
    <linearGradient
       inkscape:collect="always"
       id="linearGradient2223">
      <stop
         offset="0"
         id="stop2225"
         style="stop-color:#eeeeec;stop-opacity:1" />
      <stop
         offset="1"
         id="stop2229"
         style="stop-color:#888a85;stop-opacity:1" />
    </linearGradient>
    <linearGradient
       inkscape:collect="always"
       xlink:href="#linearGradient2223"
       id="linearGradient9955"
       gradientUnits="userSpaceOnUse"
       x1="25.062595"
       y1="36.450726"
       x2="24.978094"
       y2="4.7250991"
       gradientTransform="matrix(0.9990955,0,0,1.0522265,-6.1067358e-2,2.0151939)" />
    <linearGradient
       inkscape:collect="always"
       id="linearGradient2238">
      <stop
         offset="0"
         id="stop2240"
         style="stop-color:#ffffff;stop-opacity:1;" />
      <stop
         offset="1"
         id="stop2242"
         style="stop-color:#ffffff;stop-opacity:0;" />
    </linearGradient>
    <linearGradient
       inkscape:collect="always"
       xlink:href="#linearGradient2238"
       id="linearGradient9958"
       gradientUnits="userSpaceOnUse"
       gradientTransform="matrix(0.9528184,0,0,0.9728139,1.0626466,0.9726539)"
       x1="25.286486"
       y1="-1.1464647"
       x2="25.122681"
       y2="48.519287" />
    <linearGradient
       id="linearGradient9936">
      <stop
         style="stop-color:#333333;stop-opacity:1;"
         offset="0"
         id="stop9938" />
      <stop
         style="stop-color:#575757;stop-opacity:1;"
         offset="1"
         id="stop9940" />
    </linearGradient>
    <linearGradient
       inkscape:collect="always"
       xlink:href="#linearGradient9936"
       id="linearGradient9961"
       gradientUnits="userSpaceOnUse"
       x1="28.004532"
       y1="34.083439"
       x2="28.064732"
       y2="6.6442919"
       gradientTransform="matrix(0.9997983,0,0,1.0523161,-6.5919358e-2,2.0135479)" />
    <linearGradient
       id="linearGradient2214">
      <stop
         offset="0.0000000"
         id="stop2216"
         style="stop-color:#9c9c9c;stop-opacity:1" />
      <stop
         offset="1.0000000"
         id="stop2218"
         style="stop-color:#808080;stop-opacity:1" />
    </linearGradient>
    <linearGradient
       inkscape:collect="always"
       xlink:href="#linearGradient2214"
       id="linearGradient9966"
       gradientUnits="userSpaceOnUse"
       gradientTransform="matrix(0.9526699,0,0,0.9772347,1.0737506,-3.0561084e-2)"
       x1="24.065258"
       y1="3.1011577"
       x2="24.065258"
       y2="45.056278" />
    <linearGradient
       id="linearGradient2206">
      <stop
         offset="0.0000000"
         id="stop2208"
         style="stop-color:#bababa;stop-opacity:1" />
      <stop
         offset="1.0000000"
         id="stop2210"
         style="stop-color:#eeeeec;stop-opacity:1" />
    </linearGradient>
    <linearGradient
       inkscape:collect="always"
       xlink:href="#linearGradient2206"
       id="linearGradient9964"
       gradientUnits="userSpaceOnUse"
       gradientTransform="matrix(0.9526699,0,0,0.9772347,1.0737506,-3.0561084e-2)"
       x1="28.410345"
       y1="45.056278"
       x2="22.049141"
       y2="3.9257917" />
    <radialGradient
       inkscape:collect="always"
       xlink:href="#linearGradient5060"
       id="radialGradient9745"
       gradientUnits="userSpaceOnUse"
       gradientTransform="matrix(-2.774389,0,0,1.969706,112.7623,-872.8854)"
       cx="605.71429"
       cy="486.64789"
       fx="605.71429"
       fy="486.64789"
       r="117.14286" />
    <linearGradient
       inkscape:collect="always"
       id="linearGradient5060">
      <stop
         offset="0"
         id="stop5062"
         style="stop-color:black;stop-opacity:1;" />
      <stop
         offset="1"
         id="stop5064"
         style="stop-color:black;stop-opacity:0;" />
    </linearGradient>
    <radialGradient
       inkscape:collect="always"
       xlink:href="#linearGradient5060"
       id="radialGradient9743"
       gradientUnits="userSpaceOnUse"
       gradientTransform="matrix(2.774389,0,0,1.969706,-1891.633,-872.8854)"
       cx="605.71429"
       cy="486.64789"
       fx="605.71429"
       fy="486.64789"
       r="117.14286" />
    <linearGradient
       id="linearGradient5048">
      <stop
         offset="0"
         id="stop5050"
         style="stop-color:black;stop-opacity:0;" />
      <stop
         offset="0.5"
         id="stop5056"
         style="stop-color:black;stop-opacity:1;" />
      <stop
         offset="1"
         id="stop5052"
         style="stop-color:black;stop-opacity:0;" />
    </linearGradient>
    <linearGradient
       inkscape:collect="always"
       xlink:href="#linearGradient5048"
       id="linearGradient9740"
       gradientUnits="userSpaceOnUse"
       gradientTransform="matrix(2.774389,0,0,1.969706,-1892.179,-872.8854)"
       x1="302.85715"
       y1="366.64789"
       x2="302.85715"
       y2="609.50507" />
  </defs>
  <sodipodi:namedview
     id="base"
     pagecolor="#ffffff"
     bordercolor="#666666"
     borderopacity="1.0"
     inkscape:pageopacity="0.0"
     inkscape:pageshadow="2"
     inkscape:zoom="7"
     inkscape:cx="24"
     inkscape:cy="24"
     inkscape:current-layer="layer1"
     showgrid="true"
     inkscape:grid-bbox="true"
     inkscape:document-units="px"
     inkscape:window-width="641"
     inkscape:window-height="690"
     inkscape:window-x="0"
     inkscape:window-y="25" />
  <metadata
     id="metadata7248">
    <rdf:RDF>
      <cc:Work
         rdf:about="">
        <dc:format>image/svg+xml</dc:format>
        <dc:type
           rdf:resource="http://purl.org/dc/dcmitype/StillImage" />
      </cc:Work>
    </rdf:RDF>
  </metadata>
  <g
     id="layer1"
     inkscape:label="Layer 1"
     inkscape:groupmode="layer">
    <g
       id="g17259"
       inkscape:label="shadow"
       transform="translate(-58.038526,-1.3429181)" />
    <g
       transform="matrix(2.3640267e-2,0,0,2.0904881e-2,45.026494,40.1503)"
       id="g5022">
      <rect
         id="rect4173"
         x="-1559.2523"
         y="-150.69685"
         width="1339.6335"
         height="478.35718"
         style="opacity:0.40206185;fill:url(#linearGradient9740);fill-opacity:1;fill-rule:nonzero;stroke:none;stroke-width:1;stroke-linecap:round;stroke-linejoin:miter;marker:none;marker-start:none;marker-mid:none;marker-end:none;stroke-miterlimit:4;stroke-dasharray:none;stroke-dashoffset:0;stroke-opacity:1;visibility:visible;display:inline;overflow:visible" />
      <path
         d="M -219.61876,-150.68038 C -219.61876,-150.68038 -219.61876,327.65041 -219.61876,327.65041 C -76.744594,328.55086 125.78146,220.48075 125.78138,88.454235 C 125.78138,-43.572302 -33.655436,-150.68036 -219.61876,-150.68038 z"
         id="path5058"
         style="opacity:0.40206185;fill:url(#radialGradient9743);fill-opacity:1;fill-rule:nonzero;stroke:none;stroke-width:1;stroke-linecap:round;stroke-linejoin:miter;marker:none;marker-start:none;marker-mid:none;marker-end:none;stroke-miterlimit:4;stroke-dasharray:none;stroke-dashoffset:0;stroke-opacity:1;visibility:visible;display:inline;overflow:visible"
         sodipodi:nodetypes="cccc" />
      <path
         id="path5018"
         d="M -1559.2523,-150.68038 C -1559.2523,-150.68038 -1559.2523,327.65041 -1559.2523,327.65041 C -1702.1265,328.55086 -1904.6525,220.48075 -1904.6525,88.454235 C -1904.6525,-43.572302 -1745.2157,-150.68036 -1559.2523,-150.68038 z"
         style="opacity:0.40206185;fill:url(#radialGradient9745);fill-opacity:1;fill-rule:nonzero;stroke:none;stroke-width:1;stroke-linecap:round;stroke-linejoin:miter;marker:none;marker-start:none;marker-mid:none;marker-end:none;stroke-miterlimit:4;stroke-dasharray:none;stroke-dashoffset:0;stroke-opacity:1;visibility:visible;display:inline;overflow:visible"
         sodipodi:nodetypes="cccc" />
    </g>
    <rect
       id="rect1316"
       x="1.4999551"
       y="3.4999542"
       width="45.000088"
       height="40.000088"
       ry="4.5152116"
       rx="4.500988"
       style="fill:url(#linearGradient9964);fill-opacity:1;fill-rule:evenodd;stroke:url(#linearGradient9966);stroke-width:0.99991304;stroke-linecap:round;stroke-linejoin:round;stroke-miterlimit:4;stroke-dasharray:none;stroke-dashoffset:0;stroke-opacity:1" />
    <rect
       id="rect1314"
       x="5.5000067"
       y="8.5000095"
       width="36.999985"
       height="29.999983"
       ry="1.5050813"
       rx="1.4973123"
       style="fill:url(#linearGradient9961);fill-opacity:1;fill-rule:evenodd;stroke:#1e1f1f;stroke-width:1.00001657;stroke-linecap:round;stroke-linejoin:round;stroke-miterlimit:4;stroke-dasharray:none;stroke-dashoffset:0;stroke-opacity:1" />
    <rect
       id="rect2232"
       x="2.5000658"
       y="4.5002155"
       width="42.999866"
       height="37.999863"
       ry="3.529537"
       rx="3.5052338"
       style="fill:none;fill-opacity:1;fill-rule:evenodd;stroke:url(#linearGradient9958);stroke-width:1;stroke-linecap:round;stroke-linejoin:round;stroke-miterlimit:4;stroke-dasharray:none;stroke-dashoffset:0;stroke-opacity:1" />
    <rect
       id="rect2221"
       x="4.5000086"
       y="7.5000076"
       width="38.999981"
       height="31.999983"
       ry="2.5054605"
       rx="2.4968355"
       style="opacity:0.57386361;fill:none;fill-opacity:1;fill-rule:evenodd;stroke:url(#linearGradient9955);stroke-width:1.00001884;stroke-linecap:round;stroke-linejoin:round;stroke-miterlimit:4;stroke-dasharray:none;stroke-dashoffset:0;stroke-opacity:1" />
    <text
       xml:space="preserve"
       style="font-size:40px;font-style:normal;font-weight:normal;fill:#000000;fill-opacity:1;stroke:none;stroke-width:1px;stroke-linecap:butt;stroke-linejoin:miter;stroke-opacity:1;font-family:Bitstream Vera Sans"
       x="-2.6353178"
       y="25.951191"
       id="text5527"><tspan
         sodipodi:role="line"
         id="tspan5529"
         x="-2.6353178"
         y="25.951191" /></text>
    <path
       style="font-size:18.58501053px;font-style:normal;font-variant:normal;font-weight:bold;font-stretch:normal;text-align:start;line-height:125%;writing-mode:lr-tb;text-anchor:start;fill:#eeeeec;fill-opacity:1;stroke:none;stroke-width:1;stroke-linecap:butt;stroke-linejoin:miter;stroke-miterlimit:4;stroke-dasharray:none;stroke-opacity:1;font-family:Bitstream Vera Sans Mono"
       d="M 9.9999976,21 L 9.9999976,18 L 18.999999,23 L 18.999999,25 L 9.9999976,30 L 9.9999976,27 L 16.999998,24 L 9.9999976,21 z M 30,32 L 30,34 L 20,34 L 20,32 L 30,32"
       id="text1340"
       sodipodi:nodetypes="ccccccccccccc" />
  </g>
</svg>

<svg xmlns="http://www.w3.org/2000/svg" xmlns:xlink="http://www.w3.org/1999/xlink" width="48" height="48"><defs><linearGradient id="a"><stop offset="0" stop-color="#eeeeec"/><stop offset="1" stop-color="#888a85"/></linearGradient><linearGradient xlink:href="#a" id="o" gradientUnits="userSpaceOnUse" x1="25.063" y1="36.451" x2="24.978" y2="4.725" gradientTransform="matrix(.9991 0 0 1.05223 -.061 2.015)"/><linearGradient id="b"><stop offset="0" stop-color="#fff"/><stop offset="1" stop-color="#fff" stop-opacity="0"/></linearGradient><linearGradient xlink:href="#b" id="n" gradientUnits="userSpaceOnUse" gradientTransform="matrix(.95282 0 0 .97281 1.063 .973)" x1="25.286" y1="-1.146" x2="25.123" y2="48.519"/><linearGradient id="c"><stop offset="0" stop-color="#333"/><stop offset="1" stop-color="#575757"/></linearGradient><linearGradient xlink:href="#c" id="m" gradientUnits="userSpaceOnUse" x1="28.005" y1="34.083" x2="28.065" y2="6.644" gradientTransform="matrix(.9998 0 0 1.05232 -.066 2.014)"/><linearGradient id="d"><stop offset="0" stop-color="#9c9c9c"/><stop offset="1" stop-color="gray"/></linearGradient><linearGradient xlink:href="#d" id="l" gradientUnits="userSpaceOnUse" gradientTransform="matrix(.95267 0 0 .97723 1.074 -.03)" x1="24.065" y1="3.101" x2="24.065" y2="45.056"/><linearGradient id="e"><stop offset="0" stop-color="#bababa"/><stop offset="1" stop-color="#eeeeec"/></linearGradient><linearGradient xlink:href="#e" id="k" gradientUnits="userSpaceOnUse" gradientTransform="matrix(.95267 0 0 .97723 1.074 -.03)" x1="28.41" y1="45.056" x2="22.049" y2="3.926"/><linearGradient id="f"><stop offset="0"/><stop offset="1" stop-opacity="0"/></linearGradient><linearGradient id="g"><stop offset="0" stop-opacity="0"/><stop offset=".5"/><stop offset="1" stop-opacity="0"/></linearGradient><linearGradient xlink:href="#g" id="h" gradientUnits="userSpaceOnUse" gradientTransform="matrix(2.77439 0 0 1.9697 -1892.179 -872.885)" x1="302.857" y1="366.648" x2="302.857" y2="609.505"/><radialGradient xlink:href="#f" id="j" gradientUnits="userSpaceOnUse" gradientTransform="matrix(-2.77439 0 0 1.9697 112.762 -872.885)" cx="605.714" cy="486.648" fx="605.714" fy="486.648" r="117.143"/><radialGradient xlink:href="#f" id="i" gradientUnits="userSpaceOnUse" gradientTransform="matrix(2.77439 0 0 1.9697 -1891.633 -872.885)" cx="605.714" cy="486.648" fx="605.714" fy="486.648" r="117.143"/></defs><path style="marker:none" opacity=".402" fill="url(#h)" overflow="visible" d="M-1559.252-150.697h1339.633V327.66h-1339.633z" transform="matrix(.02364 0 0 .0209 45.026 40.15)"/><path d="M-219.619-150.68v478.33c142.874.9 345.4-107.17 345.4-239.196S-33.655-150.68-219.619-150.68z" style="marker:none" opacity=".402" fill="url(#i)" overflow="visible" transform="matrix(.02364 0 0 .0209 45.026 40.15)"/><path d="M-1559.252-150.68v478.33c-142.875.9-345.4-107.17-345.4-239.196s159.436-239.134 345.4-239.134z" style="marker:none" opacity=".402" fill="url(#j)" overflow="visible" transform="matrix(.02364 0 0 .0209 45.026 40.15)"/><rect x="1.5" y="3.5" width="45" height="40" ry="4.515" rx="4.501" fill="url(#k)" fill-rule="evenodd" stroke="url(#l)" stroke-linecap="round" stroke-linejoin="round"/><rect x="5.5" y="8.5" width="37" height="30" ry="1.505" rx="1.497" fill="url(#m)" fill-rule="evenodd" stroke="#1e1f1f" stroke-linecap="round" stroke-linejoin="round"/><rect x="2.5" y="4.5" width="43" height="38" ry="3.53" rx="3.505" fill="none" stroke="url(#n)" stroke-linecap="round" stroke-linejoin="round"/><rect x="4.5" y="7.5" width="39" height="32" ry="2.505" rx="2.497" opacity=".574" fill="none" stroke="url(#o)" stroke-linecap="round" stroke-linejoin="round"/><text x="-2.635" y="25.951" font-size="40" font-weight="400" font-family="Bitstream Vera Sans"/><path style="text-align:start;line-height:125%" d="M10 21v-3l9 5v2l-9 5v-3l7-3-7-3zm20 11v2H20v-2h10" font-size="18.585" font-weight="700" fill="#eeeeec" font-family="Bitstream Vera Sans Mono"/></svg>
